rospo-light/16x16/actions/filename-initial-amarok.svg

<svg height="16" viewBox="0 0 16 16" width="16" xmlns="http://www.w3.org/2000/svg"><path d="m3.890625 2a1.0001 1.0001 0 0 0 -.9609375.7226562l-2.88671875 9.9999998a1.0001 1.0001 0 0 0  .96093745 1.277344h1.1660157a1.0001 1.0001 0 0 0  .9628906-.732422l.6308594-2.267578h1.4804687l.6308594 2.267578a1.0001 1.0001 0 0 0  .9628906.732422h1.1660156a1.0001 1.0001 0 0 0  .5-.134766 1.0001 1.0001 0 0 0  .5.134766h.9999998a1.0001 1.0001 0 0 0  .660156-.248047c.427211.15285.876761.247417 1.337891.248047a1.0001 1.0001 0 0 0  .001953 0c2.1973 0 4-1.8027 4-4s-1.8027-4-4-4a1.0001 1.0001 0 0 0 -.001953 0c-.34402.00047-.670237.0992969-.998047.1855469v-3.1855469a1.0001 1.0001 0 0 0 -1-1h-.9999998a1.0001 1.0001 0 0 0 -1 1v6.0878906l-1.6777343-6.34375a1.0001 1.0001 0 0 0 -.9667969-.7441406zm.6640625 3 .9492187 4h-2zm7.4492185 3a2 2 0 0 1 2 2 2 2 0 0 1 -2 2 2 2 0 0 1 -2-2 2 2 0 0 1 2-2z" fill="#5c616c"/></svg>

<?xml version="1.0" encoding="UTF-8" standalone="no"?>
<svg xmlns="http://www.w3.org/2000/svg" width="22" height="22" viewBox="0 0 22 22">
 <defs>
  <style type="text/css" id="current-color-scheme">
   .ColorScheme-Text { color:#5c616c; } .ColorScheme-Highlight { color:#5294e2; }
  </style>
 </defs>
 <path style="fill:currentColor;opacity:1" class="ColorScheme-Text" transform="translate(3 3)" d="M 3.890625 2 A 1.0001 1.0001 0 0 0 2.9296875 2.7226562 L 0.04296875 12.722656 A 1.0001 1.0001 0 0 0 1.0039062 14 L 2.1699219 14 A 1.0001 1.0001 0 0 0 3.1328125 13.267578 L 3.7636719 11 L 5.2441406 11 L 5.875 13.267578 A 1.0001 1.0001 0 0 0 6.8378906 14 L 8.0039062 14 A 1.0001 1.0001 0 0 0 8.5039062 13.865234 A 1.0001 1.0001 0 0 0 9.0039062 14 L 10.003906 14 A 1.0001 1.0001 0 0 0 10.664062 13.751953 C 11.091273 13.904803 11.540823 13.99937 12.001953 14 A 1.0001 1.0001 0 0 0 12.003906 14 C 14.201206 14 16.003906 12.1973 16.003906 10 C 16.003906 7.8027 14.201206 6 12.003906 6 A 1.0001 1.0001 0 0 0 12.001953 6 C 11.657933 6.00047 11.331716 6.0992969 11.003906 6.1855469 L 11.003906 3 A 1.0001 1.0001 0 0 0 10.003906 2 L 9.0039062 2 A 1.0001 1.0001 0 0 0 8.0039062 3 L 8.0039062 9.0878906 L 6.3261719 2.7441406 A 1.0001 1.0001 0 0 0 5.359375 2 L 3.890625 2 z M 4.5546875 5 L 5.5039062 9 L 3.5039062 9 L 4.5546875 5 z M 12.003906 8 A 2 2 0 0 1 14.003906 10 A 2 2 0 0 1 12.003906 12 A 2 2 0 0 1 10.003906 10 A 2 2 0 0 1 12.003906 8 z"/>
</svg>
